!!!ONR: No. 15
!! From Harold Courlander, "Haiti Singing"
!! Chapel Hill: University of North Carolina Press, 1939
!! Copyright University of North Carolina Press
!!!ENC: D. Huron
**kern
*clefG2
*k[b-]
*M2/4
=1-
8r
8f
8a
8g
=2
8f
8d
4f
=3
4a
8.g
16f
=4
8e-
8d
8.c
16f
=5
8a
[8a
8.a]
16a
=6
8.cc
16b-
8a
8g
=7
2f
=8
8a
[8a
8.a]
16a
=9
8.cc
16b-
8a
8g
=10
[4f
12f]
12a
12a
=11
8.a
16b-
[4cc
=12
8cc]
8b-
8a
8g
=13
16f
16a
16a
16a
16f
16a
16g
16f
=14
2a
=15
8.cc
16a
12a
12f
12a
=16
2cc
=17
4ff
8.cc
16a
=18
8f
8a
4cc
=19
4ff
8.cc
16a
=20
8f
8a
4cc
=21
4ff
8.cc
16a
=22
8f
8a
4cc
==
*-
